X: 3818
T: Black Cat, The
R: jig
M: 6/8
K: Eminor
B|:e2E EFG|BcB F2G|A3 AGF|EFG AGF|
e2E EFG|BcB F2G|A3 AGF|AGF E2B:|
|:e2f gag|fdB Bdf|a3 agf|ac'b agf|
e2f gag|fba b3|Bdf Bdf|agf e2B:|

